X:319
T:Tim Moloney's
R:Reel
S:Norbeck
B:Ceol Rince 1 n88
S:My arrangement from various sources
Z:Transcription, arrangement, chords:Mike Long
M:C|
L:1/8
K:G
"G"DG~G2 Bdd2|"Bm"dedB gedB|"C"G2BG dGBd|"C"c2Bc "D"AGEG|\
"G"DG~G2 Bdd2|"Bm"dedB d2gf|
"C"efed Bdef|"C"gedB "D"AGEG:|\
|:"G"dg~g2 bg~g2|"Bm"dBBA B2ef|"C"g2bg abge|
"D"d2BG AGEG|\
"G"dg~g2 bg~g2|"Bm"dBBA B2gf|"C"efed Bdef|"C"gedB "D"AGEG:|
